public/assets/oil3.svg

<svg width="79" height="103" viewBox="0 0 79 103" fill="none" xmlns="http://www.w3.org/2000/svg">
<path d="M68.4978 98.0562H55.1337V102.999H68.4978V98.0562Z" fill="url(#paint0_linear_38_400)"/>
<path d="M25.2108 98.0562H11.8467V102.999H25.2108V98.0562Z" fill="url(#paint1_linear_38_400)"/>
<path d="M7.53397 98.0571H4.31274V103H7.53397V98.0571Z" fill="url(#paint2_linear_38_400)"/>
<path d="M78.3345 98.0556H0V0H78.3345C78.7072 0 79 0.280998 79 0.638633V97.417C79 97.7619 78.7072 98.0556 78.3345 98.0556Z" fill="url(#paint3_linear_38_400)"/>
<path d="M63.0934 93.9555H15.9197C15.1876 93.9555 14.5753 93.4063 14.5354 92.7038L9.59706 5.44106C9.55713 4.71302 10.1694 4.08716 10.9282 4.08716H68.085C68.857 4.08716 69.456 4.70025 69.4161 5.44106L64.4645 92.7038C64.4245 93.4063 63.8255 93.9555 63.0934 93.9555Z" fill="#FEF7EC" stroke="#062023" stroke-width="3" stroke-miterlimit="10" stroke-linecap="round" stroke-linejoin="round"/>
<path d="M54.8143 89.0512H24.186C22.7218 89.0512 21.5238 87.9016 21.5238 86.4966V73.5196C21.5238 72.1146 22.7218 70.9651 24.186 70.9651H54.8143C56.2785 70.9651 57.4765 72.1146 57.4765 73.5196V86.4966C57.4765 87.9016 56.2785 89.0512 54.8143 89.0512Z" fill="url(#paint4_linear_38_400)"/>
<path d="M51.2203 82.1282C52.4407 82.1282 53.4299 81.1789 53.4299 80.008C53.4299 78.837 52.4407 77.8877 51.2203 77.8877C50 77.8877 49.0107 78.837 49.0107 80.008C49.0107 81.1789 50 82.1282 51.2203 82.1282Z" fill="#FEF7EC"/>
<path d="M27.78 82.1282C29.0004 82.1282 29.9896 81.1789 29.9896 80.008C29.9896 78.837 29.0004 77.8877 27.78 77.8877C26.5597 77.8877 25.5704 78.837 25.5704 80.008C25.5704 81.1789 26.5597 82.1282 27.78 82.1282Z" fill="#FEF7EC"/>
<path d="M46.7746 75.4609H32.2391V84.5551H46.7746V75.4609Z" fill="#062023"/>
<path d="M49.7155 41.4577C49.7155 44.1803 48.5883 46.7915 46.582 48.7167C44.5756 50.6419 41.8544 51.7235 39.017 51.7235C36.1796 51.7235 33.4584 50.6419 31.4521 48.7167C29.4458 46.7915 28.3186 44.1803 28.3186 41.4577C28.3186 35.7879 39.017 20.0273 39.017 20.0273C39.017 20.0273 49.7155 35.7879 49.7155 41.4577Z" fill="#3D4C66"/>
<path d="M31.1473 43.5601C31.0652 43.5769 30.9789 43.5596 30.9075 43.5119C30.8361 43.4642 30.7854 43.3901 30.7665 43.3058C30.7261 43.1189 30.6953 42.9303 30.6743 42.7406C30.6694 42.6981 30.6727 42.6553 30.684 42.6146C30.6953 42.5739 30.7144 42.5361 30.7402 42.5033C30.766 42.4706 30.7981 42.4435 30.8345 42.4237C30.871 42.4038 30.9111 42.3916 30.9526 42.3877C30.9941 42.3838 31.0361 42.3884 31.0764 42.401C31.1166 42.4137 31.1542 42.4342 31.1871 42.4615C31.2199 42.4888 31.2473 42.5222 31.2678 42.56C31.2883 42.5977 31.3013 42.639 31.3063 42.6814C31.3243 42.8477 31.3508 43.0132 31.3859 43.1771C31.3954 43.2189 31.3968 43.262 31.3899 43.3039C31.3831 43.3458 31.3681 43.3857 31.346 43.4213C31.3238 43.4569 31.2948 43.4875 31.2608 43.5113C31.2267 43.5351 31.1881 43.5517 31.1473 43.5601Z" fill="white"/>
<path d="M34.2031 48.4418C34.154 48.452 34.1032 48.4514 34.0544 48.44C34.0056 48.4286 33.9601 48.4067 33.9214 48.376C32.7344 47.44 31.8071 46.2365 31.2222 44.8729C31.2041 44.8338 31.1944 44.7917 31.1937 44.7489C31.1929 44.7062 31.201 44.6637 31.2176 44.6241C31.2342 44.5844 31.2589 44.5483 31.2903 44.518C31.3217 44.4877 31.359 44.4637 31.4002 44.4474C31.4414 44.4312 31.4856 44.4231 31.5301 44.4235C31.5746 44.4239 31.6186 44.4329 31.6595 44.4499C31.7003 44.4669 31.7372 44.4916 31.7679 44.5226C31.7987 44.5535 31.8227 44.59 31.8384 44.63C32.3824 45.8952 33.2434 47.0119 34.3449 47.8809C34.3938 47.919 34.4304 47.9696 34.4506 48.0268C34.4707 48.0841 34.4736 48.1457 34.4587 48.2044C34.4439 48.2632 34.412 48.3166 34.3667 48.3587C34.3215 48.4007 34.2647 48.4295 34.2031 48.4418Z" fill="white"/>
<g style="mix-blend-mode:soft-light" opacity="0.5">
<path d="M38.9646 19.936C38.9646 19.936 38.3251 20.8795 37.361 22.3816C39.8253 26.141 47.2744 37.8976 47.2744 42.6302C47.2746 44.246 46.8764 45.8388 46.1121 47.2785C45.3478 48.7182 44.2393 49.9639 42.8771 50.9137C44.8762 50.16 46.5924 48.8462 47.8023 47.1433C49.0122 45.4404 49.6597 43.4273 49.6604 41.3663C49.663 35.6966 38.9646 19.936 38.9646 19.936Z" fill="#3D4C66"/>
</g>
<path d="M31.9024 28.6129C31.8604 28.6131 31.819 28.6032 31.7821 28.5841C31.7231 28.5537 31.6793 28.5023 31.6603 28.4414C31.6413 28.3805 31.6486 28.3149 31.6806 28.259C32.2127 27.3264 32.8814 26.1979 33.3795 25.3584L33.6491 24.8998C33.6654 24.8723 33.6872 24.8481 33.7134 24.8285C33.7396 24.809 33.7696 24.7945 33.8016 24.7859C33.8337 24.7773 33.8673 24.7748 33.9004 24.7785C33.9335 24.7822 33.9656 24.792 33.9947 24.8074C34.0238 24.8228 34.0494 24.8434 34.07 24.8682C34.0907 24.8929 34.106 24.9213 34.1151 24.9516C34.1242 24.982 34.1268 25.0137 34.1229 25.045C34.119 25.0764 34.1087 25.1066 34.0924 25.1342L33.8202 25.5933C33.3231 26.4313 32.656 27.5564 32.1253 28.4871C32.1036 28.5251 32.0714 28.5568 32.0322 28.579C31.993 28.6011 31.9481 28.6129 31.9024 28.6129Z" fill="#323C6B"/>
<path d="M34.3603 24.3201C34.3189 24.3201 34.2783 24.3088 34.2425 24.2873C34.2067 24.2659 34.177 24.235 34.1563 24.1978C34.1356 24.1606 34.1248 24.1184 34.1248 24.0755C34.1248 24.0325 34.1356 23.9903 34.1563 23.9531L34.4389 23.4531C34.4531 23.4228 34.4731 23.396 34.4977 23.3741C34.5223 23.3523 34.551 23.3359 34.5819 23.3261C34.6129 23.3163 34.6454 23.3132 34.6776 23.317C34.7097 23.3209 34.7408 23.3315 34.7688 23.3484C34.7968 23.3652 34.8211 23.3879 34.8403 23.415C34.8595 23.4421 34.8731 23.4729 34.8803 23.5057C34.8875 23.5385 34.8881 23.5725 34.8821 23.6055C34.8761 23.6385 34.8636 23.6699 34.8454 23.6977L34.5642 24.1978C34.5435 24.235 34.5138 24.2659 34.478 24.2873C34.4422 24.3088 34.4016 24.3201 34.3603 24.3201Z" fill="#323C6B"/>
<path d="M38.9655 52.0714C36.0417 52.0683 33.2387 50.9524 31.1713 48.9686C29.104 46.9848 27.9411 44.2951 27.9377 41.4896C27.9377 35.7914 38.2509 20.5339 38.6895 19.8874C38.7213 19.8459 38.7629 19.8121 38.8108 19.7888C38.8588 19.7655 38.9117 19.7534 38.9655 19.7534C39.0192 19.7534 39.0722 19.7655 39.1201 19.7888C39.168 19.8121 39.2096 19.8459 39.2414 19.8874C39.6807 20.5339 49.9938 35.7946 49.9938 41.4896C49.9905 44.2952 48.8275 46.985 46.76 48.9688C44.6925 50.9526 41.8893 52.0684 38.9655 52.0714ZM38.9655 20.6445C37.2927 23.1609 28.5963 36.4828 28.5963 41.4896C28.6181 44.1148 29.7202 46.6254 31.6625 48.4744C33.6048 50.3233 36.2299 51.3608 38.9658 51.3608C41.7017 51.3608 44.3268 50.3233 46.2691 48.4744C48.2114 46.6254 49.3135 44.1148 49.3353 41.4896C49.3353 36.4828 40.6389 23.1609 38.9655 20.6445Z" fill="#323C6B"/>
<defs>
<linearGradient id="paint0_linear_38_400" x1="55.1302" y1="100.527" x2="68.493" y2="100.527" gradientUnits="userSpaceOnUse">
<stop offset="0.00249518" stop-color="#28C985"/>
<stop offset="1" stop-color="#18808A"/>
</linearGradient>
<linearGradient id="paint1_linear_38_400" x1="11.8436" y1="100.527" x2="25.2064" y2="100.527" gradientUnits="userSpaceOnUse">
<stop offset="0.00249518" stop-color="#28C985"/>
<stop offset="1" stop-color="#18808A"/>
</linearGradient>
<linearGradient id="paint2_linear_38_400" x1="4.31252" y1="100.528" x2="7.53992" y2="100.528" gradientUnits="userSpaceOnUse">
<stop offset="0.00249518" stop-color="#28C985"/>
<stop offset="1" stop-color="#18808A"/>
</linearGradient>
<linearGradient id="paint3_linear_38_400" x1="-5.8923" y1="5.65404" x2="80.7788" y2="95.9773" gradientUnits="userSpaceOnUse">
<stop offset="0.00249518" stop-color="#28C985"/>
<stop offset="1" stop-color="#18808A"/>
</linearGradient>
<linearGradient id="paint4_linear_38_400" x1="26.5848" y1="67.608" x2="51.3552" y2="93.4222" gradientUnits="userSpaceOnUse">
<stop offset="0.00249518" stop-color="#28C985"/>
<stop offset="1" stop-color="#18808A"/>
</linearGradient>
</defs>
</svg>

<svg width="79" height="103" fill="none" xmlns="http://www.w3.org/2000/svg"><path d="M68.498 98.056H55.134V103h13.364v-4.943z" fill="url(#a)"/><path d="M25.21 98.056H11.848V103H25.21v-4.943z" fill="url(#b)"/><path d="M7.534 98.057H4.313V103h3.221v-4.943z" fill="url(#c)"/><path d="M78.335 98.056H0V0h78.335c.372 0 .665.281.665.639v96.778a.654.654 0 0 1-.665.639z" fill="url(#d)"/><path d="M63.093 93.956H15.92c-.732 0-1.345-.55-1.385-1.252L9.597 5.44c-.04-.728.572-1.354 1.331-1.354h57.157c.772 0 1.371.613 1.331 1.354l-4.951 87.263c-.04.702-.64 1.252-1.372 1.252z" fill="#FEF7EC" stroke="#062023" stroke-width="3" stroke-miterlimit="10" stroke-linecap="round" stroke-linejoin="round"/><path d="M54.814 89.051H24.186c-1.464 0-2.662-1.15-2.662-2.554V73.52c0-1.405 1.198-2.555 2.662-2.555h30.628c1.465 0 2.663 1.15 2.663 2.555v12.977c0 1.405-1.198 2.554-2.663 2.554z" fill="url(#e)"/><path d="M51.22 82.128c1.22 0 2.21-.95 2.21-2.12 0-1.171-.99-2.12-2.21-2.12s-2.21.949-2.21 2.12c0 1.17.99 2.12 2.21 2.12zM27.78 82.128c1.22 0 2.21-.95 2.21-2.12 0-1.171-.99-2.12-2.21-2.12s-2.21.949-2.21 2.12c0 1.17.99 2.12 2.21 2.12z" fill="#FEF7EC"/><path d="M46.775 75.46H32.239v9.095h14.536v-9.094z" fill="#062023"/><path d="M49.715 41.458c0 2.722-1.127 5.334-3.133 7.259-2.006 1.925-4.728 3.007-7.565 3.007-2.837 0-5.559-1.082-7.565-3.007-2.006-1.925-3.133-4.537-3.133-7.26 0-5.67 10.698-21.43 10.698-21.43s10.698 15.76 10.698 21.43z" fill="#3D4C66"/><path d="M31.147 43.56a.317.317 0 0 1-.24-.048.337.337 0 0 1-.14-.206 5.582 5.582 0 0 1-.093-.565.33.33 0 0 1 .066-.238.307.307 0 0 1 .336-.102.328.328 0 0 1 .192.159c.02.038.033.079.038.121.018.167.045.332.08.496a.33.33 0 0 1-.04.244.31.31 0 0 1-.199.14zM34.203 48.442a.345.345 0 0 1-.282-.066 8.973 8.973 0 0 1-2.699-3.503.307.307 0 0 1-.004-.249.318.318 0 0 1 .182-.177.347.347 0 0 1 .368.076c.03.03.055.067.07.107a8.347 8.347 0 0 0 2.507 3.25.32.32 0 0 1 .106.147.307.307 0 0 1-.084.332.337.337 0 0 1-.164.083z" fill="#fff"/><path d="M38.965 19.936s-.64.944-1.604 2.446c2.464 3.759 9.913 15.516 9.913 20.248a9.903 9.903 0 0 1-1.162 4.648 10.365 10.365 0 0 1-3.235 3.636c2-.754 3.715-2.068 4.925-3.77a9.973 9.973 0 0 0 1.858-5.778c.003-5.67-10.695-21.43-10.695-21.43z" fill="#3D4C66" style="mix-blend-mode:soft-light" opacity=".5"/><path d="M31.902 28.613a.26.26 0 0 1-.12-.029.243.243 0 0 1-.122-.143.229.229 0 0 1 .02-.182c.533-.933 1.201-2.061 1.7-2.9l.27-.46a.245.245 0 0 1 .152-.113.267.267 0 0 1 .193.021.25.25 0 0 1 .12.145.227.227 0 0 1-.023.182l-.272.46c-.497.837-1.164 1.962-1.695 2.893a.247.247 0 0 1-.093.092.265.265 0 0 1-.13.034zM34.36 24.32a.229.229 0 0 1-.117-.033.24.24 0 0 1-.087-.09.252.252 0 0 1 0-.244l.283-.5a.245.245 0 0 1 .143-.127.228.228 0 0 1 .258.089.25.25 0 0 1 .042.19.25.25 0 0 1-.037.093l-.28.5a.24.24 0 0 1-.087.09.228.228 0 0 1-.118.032zM38.965 52.071c-2.923-.003-5.726-1.119-7.794-3.102-2.067-1.984-3.23-4.674-3.233-7.48 0-5.698 10.313-20.955 10.752-21.602a.34.34 0 0 1 .276-.134.354.354 0 0 1 .275.134c.44.647 10.753 15.908 10.753 21.603-.004 2.805-1.166 5.495-3.234 7.479-2.067 1.984-4.87 3.1-7.794 3.102zm0-31.426C37.294 23.16 28.596 36.483 28.596 41.49c.022 2.625 1.124 5.135 3.067 6.984 1.942 1.85 4.567 2.887 7.303 2.887 2.736 0 5.36-1.038 7.303-2.887 1.942-1.849 3.044-4.36 3.066-6.984 0-5.007-8.696-18.33-10.37-20.846z" fill="#323C6B"/><defs><linearGradient id="a" x1="55.13" y1="100.527" x2="68.493" y2="100.527" gradientUnits="userSpaceOnUse"><stop offset=".002" stop-color="#28C985"/><stop offset="1" stop-color="#18808A"/></linearGradient><linearGradient id="b" x1="11.844" y1="100.527" x2="25.206" y2="100.527" gradientUnits="userSpaceOnUse"><stop offset=".002" stop-color="#28C985"/><stop offset="1" stop-color="#18808A"/></linearGradient><linearGradient id="c" x1="4.313" y1="100.528" x2="7.54" y2="100.528" gradientUnits="userSpaceOnUse"><stop offset=".002" stop-color="#28C985"/><stop offset="1" stop-color="#18808A"/></linearGradient><linearGradient id="d" x1="-5.892" y1="5.654" x2="80.779" y2="95.977" gradientUnits="userSpaceOnUse"><stop offset=".002" stop-color="#28C985"/><stop offset="1" stop-color="#18808A"/></linearGradient><linearGradient id="e" x1="26.585" y1="67.608" x2="51.355" y2="93.422" gradientUnits="userSpaceOnUse"><stop offset=".002" stop-color="#28C985"/><stop offset="1" stop-color="#18808A"/></linearGradient></defs></svg>
